X:1
T:Discord, dire sister - Webbe
T:#
%%score [ 1 { 2 | 3 } 4 ]
L:1/8
Q:1/4=140
M:4/4
K:Ab
V:1 treble-8 nm="Alto" snm="A"
V:2 treble-8 nm="Tenor II"
V:3 treble-8 
V:4 bass nm="Bass" snm="B"
V:1
"^Discord, dire sister""^Samuel Webbe\n(1740-1816)""^largo" f4 f8 | g4 g4 g4 | g4 f4 f2 f2 | %3
w: Dis- cord,|dis- cord, dire|si- ster of the|
 f8 f4 | e12 |!p! =d4 f4 d4 |[M:3/2][K:treble-8] (e2 f2 g2 e2) (f2 g2) | a4 a4 z4 |!f! b8 a4 | %9
w: slaugh- t'ring|pow'r,|Small at her|birth, * * * but *|ri- sing,|ri- sing|
 (a2 b2 a4) g4 | a8 |:[M:2/2][K:treble-8]"^allegro"[Q:1/4=216] a4 | g4 f4 | f6 e2 | d2 c2 B2 A2 | %15
w: ev'\- * * ry|hour,|While|scarce the|skies her|hor- rid head can|
 G4 =e4 |[M:2/2][K:treble-8][Q:1/4=216][Q:1/4=216][Q:1/4=216][Q:1/4=216] f4 c4 | d4 z4 | z8 | %19
w: bound, She|stalks on|earth,||
 z2 f2 f2 g2 | a4 a4 | g2 g2 g2 g2 | f4 z4 | z4 =e4 | =e4 e4 | f4 z4 | z2 a2 a2 g2 | f4 e4 | =d8 | %29
w: While scarce the|skies her|hor- rid head can|bound,|She|stalks on|earth,|and shakes the|world a-|round.|
 z4 =d4 | =d2 c2 =B2 B2 | c8- | c4 =d4 | =d8 |!p!"^cresc." =e4 g2 g2 | f4 f4 | f4 _e4 | =d4 d4 | %38
w: Dire|si- ster of the|slaugh\-|* t'ring|pow'r,|Small at her|birth, but|ri- sing|ev'- ry|
 c4!f! =e4 | =e4 g4 | f4 a4 | g2 f2 =e2 f2 | g4 z2 f2 | f4 f4 | =e2 e2 f2 f2 | f4 =e4 |1 f4 :|2 %47
w: hour, While|scarce the|skies her|hor- rid head can|bound, She|stalks on|earth, and shakes the|world a-|round.|
 !fermata!f8 |:[K:F][M:3/4][K:treble-8]"^grazioso"[Q:1/4=108] f2 | (f>g a2) f2 | d4 g2 | %51
w: \-round.|But|love\- * * ly|peace, in|
 (f3 a) (gf) | e4 g2 |[M:3/4][K:treble-8][Q:1/4=108][Q:1/4=108][Q:1/4=108][Q:1/4=108] (g2 f2) f2 | %54
w: an\- * gel's *|form De-|scen\- * ding,|
 (f>e d2) g2 | (f2 e2) d2 | e4 | c2 | (e2 f2) g2 | f4 a2 | (b3 a) (gf) | (f2 e2) c2 | d4 e2 | %63
w: quells * * the|ri\- * sing|storm.|Soft|ease * and|sweet con-|tent * shall *|reign * And|dis- cord|
 (f3/2g/4a/4[Q:1/4=108] c2)[Q:1/4=108] c2 |[Q:1/4=108] (d3/2e/4f/4 A2)[Q:1/4=108] TG2 | %65
w: ne- * * * ver|rise * * * a-|
[Q:1/4=108] F4 :| %66
w: gain.|
V:2
 c4 c8 | =e4 e4 (e2 g2) | c4 c4 c2 c2 | d8 d4 | (d4 c8) |!p! B4 B4 B4 |[M:3/2][K:treble-8] B8 e4 | %7
w: Dis- cord,|dis- cord, dire *|si- ster of the|slaugh- t'ring|pow'r, *|Small at her|birth, but|
 (e2 dc d4) d4 | z4!f! e4 e4 | f4 e8 | (d4 c4) |:[M:2/2][K:treble-8] f4 | =e4 f4 | d6 c2 | %14
w: ri\- * * * sing,|ri- sing|ev'- ry|hour, *|While|scarce the|skies her|
 B2 A2 B2 f2 | =e4 z4 |[M:2/2][K:treble-8] z8 | f8 | =e4 e4 | f4 z4 | z2 c2 c2 =d2 | e4 E4 | %22
w: hor- rid head can|bound,||She|stalks on|earth,|While scarce the|skies her|
 B2 G2 A2 B2 | c4 z4 | z4 c4 | c4 =e4 | f4 c4 | c2 B2 B2 =A2 | B8 | G8 | G8 | z4 _e2 e2 | %32
w: hor- rid head can|bound,|She|stalks on|earth, and|shakes the world a-|round.|Dis-|cord,|of the|
 e4 (=d2 c2) | =B8 |!p!"^cresc." c4 =e2 e2 | (f2 _e2) (=d2 c2) | =B4 c4 | c4 =B4 | c4!f! c4 | %39
w: slaugh- t'ring *|pow'r,|Small at her|birth, * but *|ri- sing|ev'- ry|hour, While|
 c4 =e4 | f4 f4 | d2 c2 c2 c2 | c4 c4 | B4 =B4 | c2 c2 c2 d2 | c4 c4 |1 c4 :|2 !fermata!c8 |: %48
w: scarce the|skies her|hor- rid head can|bound, She|stalks on|earth, and shakes the|world a-|round.|round.|
[K:F][M:3/4][K:treble-8] c2 | c4 c2 | (c2 B4) | z F (BA) d2 | c4 (cB) | %53
w: But|love- ly|peace, *|in an\- * gel's|form De\- *|
[M:3/4][K:treble-8] A2 AA Ac | =B4 c2 | (d2 c2) =B2 | c4 | c2 | c4 c2 | (c>B) A2 c2 | (d>c B2) d2 | %61
w: scen- ding, de- scen- ding,|quells the|ri\- * sing|storm.|Soft|ease and|sweet * * con-|tent * * shall|
 c4 G2 | G4 G2 | (c3 d/e/) f2 | f4 e2 | f4 :| %66
w: reign And|dis- cord|ne\- * * ver|rise a-|gain.|
V:3
 A4 A8 | B4 B4 (c2 B2) | A4 A4 A2 A2 | A8 A4 | A12 |!p! A8 F2 F2 |[M:3/2][K:treble-8] G8 B4 | %7
w: Dis- cord,|dis- cord, dire *|si- ster of the|slaugh- t'ring|pow'r,|Small at her|birth, but|
 (A6 G2) F4 | z2!f! B2 (e2 d2 c2) e2 | (e2 d2 c4) B4 | A8 |:[M:2/2][K:treble-8] c4 | B4 c4 | %13
w: ri\- * sing,|but ri\- * * sing|ev'\- * * ry|hour,|While|scarce the|
 B4 F4 | F2 F2 F2 d2 | c8 |[M:2/2][K:treble-8] A8 | B8 | G8 | F8- | F4 z4 | z2 B2 B2 c2 | d4 F4 | %23
w: skies her|hor- rid head can|bound,|She|stalks|on|earth,||While scarce the|skies her|
 =E2 G2 B2 (B>A) | G4 G4 | F4 B4 | A2 F2 F2 F2 | F4 F4 | F4 F4- | F8 | E4 z4 | z8 | A2 A2 A2 A2 | %33
w: hor- rid head can *|bound, She|stalks on|earth, and shakes the|world a-|round. Dis\-||cord,||of the slaugh- t'ring|
 G8 |!p!"^cresc." G4 c2 B2 | A2 F2 A2 F2 | z2 G2 G4- | G2 G2 G2 G2 | (E2 C2) z4 | z8 | z4!f! F4 | %41
w: pow'r,|Small at her|birth but ri- sing,|but ri\-|* sing ev'- ry|hour, *||Her|
 F2 F2 B2 A2 | G4 =A4 | B2 F2 F2 F2 | G2 G2 A2 G2 | G4 G4 |1 A4 :|2 !fermata!A8 |: %48
w: hor- rid head can|bound, She|stalks, she stalks on|earth, and shakes the|world a-|round.|round.|
[K:F][M:3/4][K:treble-8] A2 | (A>G F2) F2 | F4 B2 | (Tc3/2B/4c/4 dc) (BA) | G4 z2 | %53
w: But|love\- * * ly|peace, in|an\- * * * * gel's *|form|
[M:3/4][K:treble-8] z c c2 d2 | (d>c =B2) G2 | A2 G4 | G4 | G2 | (G2 F2) B2 | (A>B c2) A2 | F4 B2 | %61
w: De- scen- ding,|quells * * the|ri- sing|storm.|Soft|ease * and|sweet * * con-|tent shall|
 (A2 G2) E2 | F4 G2 | F4 (F>f) | (d2 c3) B | (B2 A2) :| %66
w: reign * And|dis- cord|ne- ver *|rise * a-|gain. *|
V:4
 F,4 F,8 | F,4 F,4 =E,4 | F,4 F,4 F,2 F,2 | D,8 D,4 | A,,12 |!p! B,,8 B,,2 B,,2 |[M:3/2] E,8 E,4 | %7
w: Dis- cord,|dis- cord, dire|si- ster of the|slaugh- t'ring|pow'r,|Small at her|birth, but|
 F,4 F,4 z4 |!f! G,8 A,4 | D,4 E,8 | A,,8 |:[M:2/2] F,4 | G,4 A,4 | B,4 B,4 | B,,2 C,2 D,2 B,,2 | %15
w: ri- sing,|ri- sing|ev'- ry|hour,|While|scarce the|skies her|hor- rid head can|
 C,8 |[M:2/2] z8 | z4 B,4 | C4 G,4 | A,4 z4 | F,8 | E,8 | D,8 | C,8- | C,2 C2 C2 B,2 | A,4 G,4 | %26
w: bound,||She|stalks on|earth,|She|stalks|on|earth,|* and shakes the|world a-|
 F,2 F,2 F,2 E,2 | D,4 C,4 | B,,8 | =B,,8 | C,4 G,4 | C2 C2 C2 B,2 | A,4 F,4 | G,8 | %34
w: round, and shakes the|world a-|round.|Dis-|cord, dire|si- ster of the|slaugh- t'ring|pow'r,|
!p!"^cresc." C,4 C,2 C,2 | F,6 F,2 | G,4 C4 | G,4 G,4 | C,4!f! C,4 | C6 C2 | D6 C2 | %41
w: Small at her|birth, but|ri- sing|ev'- ry|hour, While|scarce the|skies her|
 B,2 A,2 G,2 F,2 | =E,4 _E,4 | =D,4 _D,4 | C,2 B,,2 A,,2 B,,2 | C,4 C,4 |1 F,4 :|2 !fermata!F,8 |: %48
w: hor- rid head can|bound, she|stalks on|earth, and shakes the|world a-|round.|round.|
[K:F][M:3/4] F,2 | F,4 A,,2 | B,,4 G,,2 | A,,2 B,,4 | C,4 C,2 |[M:3/4] F,4 D,2 | G,4 E,2 | %55
w: But|love- ly|peace, in|an- gel's|form De-|scen- ding,|quells the|
 F,2 G,4 | C,4 | C,2 | (C,2 D,2) E,2 | (F,>G, A,2) F,2 | (B,,>C, D,2) B,,2 | C,4 C,2 | %62
w: ri- sing|storm.|Soft|ease * and|sweet * * con-|tent * * shall|reign And|
 =B,,4 _B,,2 | A,,4 A,,2 | B,,2 C,4 | F,4 :| %66
w: dis- cord|ne- ver|rise a-|gain.|

